/* XPM */
static const char * const neojrl_icon_xpm[] = {
/* columns rows colors chars-per-pixel */
"32 32 131 2 ",
"   c None",
".  c #0A0A00",
"X  c #151300",
"o  c #1E1C00",
"O  c #242100",
"+  c #282500",
"@  c #2F2C00",
"#  c #332E00",
"$  c #363200",
"%  c #3B3400",
"&  c #453D00",
"*  c #474100",
"=  c #4B4400",
"-  c #544B00",
";  c #594E00",
":  c #5C5300",
">  c #635500",
",  c #645A00",
"<  c #6A5E00",
"1  c #6A6100",
"2  c #6E6C00",
"3  c #726600",
"4  c #776C00",
"5  c #7C6F00",
"6  c #7E7201",
"7  c #827500",
"8  c #877900",
"9  c #8B7B00",
"0  c #8F8000",
"q  c #928400",
"w  c #998601",
"e  c #9C8B01",
"r  c #989500",
"t  c #A38E01",
"y  c #AA9701",
"u  c #AD9D00",
"i  c #B09F00",
"p  c #AFA200",
"a  c #B6A700",
"s  c #B8A601",
"d  c #B7AA00",
"f  c #BAAB01",
"g  c #B2B100",
"h  c #BAB000",
"j  c #BAB800",
"k  c #C2AD01",
"l  c #C8B501",
"z  c #C6B901",
"x  c #CBBA01",
"c  c #CBC101",
"v  c #CBC801",
"b  c #D6C101",
"n  c #DAC501",
"m  c #DFC901",
"M  c #DCD201",
"N  c #E4CD01",
"B  c #E6D301",
"V  c #EBD201",
"C  c #EBDD01",
"Z  c #F3DC01",
"A  c #F9DD01",
"S  c #E7E301",
"D  c #EFE301",
"F  c #EFEA01",
"G  c #F5E301",
"H  c #FEE301",
"J  c #FDE101",
"K  c #F9E401",
"L  c #FAE501",
"P  c #F9E701",
"I  c #FBE601",
"U  c #FBE701",
"Y  c #FEE501",
"T  c #FCE701",
"R  c #FFE701",
"E  c #FAE101",
"W  c #F6EB01",
"Q  c #F0EC01",
"!  c #FBE801",
"~  c #FAE901",
"^  c #FBE901",
"/  c #FEE801",
"(  c #FFE901",
")  c #FBED01",
"_  c #FCEC01",
"`  c #FDED01",
"'  c #FEEC01",
"]  c #FEED01",
"[  c #FFED01",
"{  c #FDEE01",
"}  c #FDEF01",
"|  c #FFEE01",
" . c #FEEF01",
".. c #FFEF01",
"X. c #F0F001",
"o. c #F0F101",
"O. c #F3F201",
"+. c #F3F301",
"@. c #F4F301",
"#. c #F4F401",
"$. c #F5F501",
"%. c #F6F601",
"&. c #F9F101",
"*. c #FAF101",
"=. c #FBF301",
"-. c #FEF001",
";. c #FEF101",
":. c #FEF201",
">. c #FFF301",
",. c #F9F401",
"<. c #FBF701",
"1. c #FFF401",
"2. c #FFF501",
"3. c #FDF601",
"4. c #FFF601",
"5. c #FFF701",
"6. c #F8F801",
"7. c #F9F901",
"8. c #FBFB01",
"9. c #FDF801",
"0. c #FDF901",
"q. c #FEF801",
"w. c #FFF801",
"e. c #FFFA01",
"r. c #FFFB01",
"t. c #FCFC01",
"y. c #FDFD01",
"u. c #FFFD01",
"i. c #FEFE01",
"p. c #FFFE01",
"a. c #FFFF01",
/* pixels */
"                                                                ",
"                                                                ",
"                                                                ",
"                                                                ",
"                                                                ",
"                                                                ",
"      O % $ # $ o X $ % # $ # % @     % % # # % #               ",
"      y r.} A a.j 9 K 5.H Y Y Y / n O k a.} A 8.v               ",
"      e } G N 5.h 7 V Y Y r.5.:.H r.B - v :.N <.c               ",
"      e } G V a.g 3 C W t < 3 3 n Z r.4 f } V *.c               ",
"      e K a.u @ o 8 *.S ;       ; K r.u . 6 E 8.x               ",
"      e G a.p     a.K C :       * Z a.d   3 G %.z               ",
"      e K a.a   < r.Z Z w : 3 , k o.a.1     G o.z               ",
"      e K a.a   1 a.V Z } 5.5.5.<.Z ,     7 G o.z               ",
"      e K a.a   1 a.Z V V E V ~ 4         6 G %.z               ",
"      e K a.a   1 5.P M > u a.A b         6 Z 8.f o             ",
"      e K a.a   1 5.K D ; X E P Y m k B q 8 B } N x l x l x b 1 ",
"      e K a.a   < :.G Z 1   & } G Z A 8.d 9 N P V E ~ P P ~ o.8 ",
"      w G a.a   2 a.%.F <     ; a.r.Y a.f t S a.) :.} :.} :.@.9 ",
"      s / r.d   % w 9 8 #       : q 7 q , = 7 0 7 7 7 7 7 8 9 & ",
"  + 5 G Z *.a                                                   ",
"- Q 5.Z N a.r                                                   ",
"; G Z Z %.C &                                                   ",
": o.} V i #                                                     ",
"X & #                                                           ",
"                                                                ",
"                                                                ",
"                                                                ",
"                                                                ",
"                                                                ",
"                                                                ",
"                                                                "
};
